X:1
T:The Bible
T:William Batchelder Bradbury, 1867
T:The Bible
T:Public Domain
T:Public Domain
C:William Batchelder Bradbury, 1867
Z:Public Domain
%%score ( 1 2 ) ( 3 4 )
L:1/8
M:4/4
K:Bb
V:1 treble 
V:2 treble 
V:3 bass 
V:4 bass 
V:1
 [DF]2 | [DF]2 [B,D]>[CE] [DF]2 [EG]>[DF] | [DB]2 [Fd]>[Ec] [DB]3 [FA] | %3
w: 1.~The|Bi- ble! the Bi- ble! more|pre- cious than gold, The|
w: 2.~The|Bi- ble! the Bi- ble! blest|vol- ume of truth, How|
w: 3.~The|Bi- ble! the Bi- ble! we|hail it with joy, Its|
w: 4.~The|Bi- ble! the Bi- ble! the|val- leys shall ring, And|
 [EG]2 [GB]>[EG] [DF]2 [Fd]>[FB] | ([Ec][DB])[CA][DB] [Ec]2 [EF]2 | %5
w: hopes and the glo- ries its|pag- * es un- fold; It|
w: sweet- ly it smiles on the|sea- * son of youth! It|
w: truths and its glo- ries our|tongues * shall em- ploy; We’ll|
w: hill- tops re- e- cho the|notes * that we sing; Our|
 [DF]2 [B,D]>[CE] [DF]2 [EG]>[DF] | [DB]2 [Fc]>[Fc] [Fd]3 [Fd] | [Ac]2 [Ac]>[Ad] (BF)[DF][FB] | %8
w: speaks of a Sav- ior, and|tells of His love; It|shows us the way * to the|
w: bids us seek ear- ly the|pearl of great price, Ere|th’heart is en- slaved * in the|
w: sing of its tri- umphs, we’ll|sing of its worth, And|send its glad tid- * ings a-|
w: ban- ners in- scribed with its|pre- cepts and rules Shall|long wave in tri- * umph, the|
 [Ac]2 [Bd]>[Bd] [ce]3 [Ac] | [Bd]2 [Be]>[Be] (BF) [Ge]>[Ec] | [DB]2 [Fd]>[Ec] [DB]4- | [DB]4 z4 |] %12
w: sions a- bove, It shows|us the way to * the man-|a- bove. * *||
w: age of vice, Ere th’heart|is en- slaved in * the bond-|of vice. * *||
w: o’er the earth, And send|its glad tid- ings * a- far|the earth. * *||
w: of our schools, Shall long|wave in tri- umph, * the joy|our schools. * *||
V:2
 x2 | x8 | x8 | x8 | x8 | x8 | x8 | x4 B2 x2 | x8 | x4 f2 x2 | x8 | x8 |] %12
w: |||||||man-||sions|||
w: |||||||bond-||age|||
w: |||||||far||o’er|||
w: |||||||joy||of|||
V:3
 [B,,B,]2 | [B,,B,]2 [B,,B,]>[B,,B,] [B,,B,]2 [B,,B,]>[B,,B,] | %2
 [B,,B,]2 [F,A,]>[F,A,] [B,,B,]3 [D,B,] | [E,B,]2 [E,B,]>[E,B,] [B,,B,]2 [B,,B,]>[D,B,] | %4
 F,2 F,F, F,2 [F,A,]2 | [B,,B,]2 [B,,B,]>[B,,B,] [B,,B,]2 [B,,B,]>[B,,B,] | %6
 [G,B,]2 [F,A,]>[F,A,] B,3 [B,,B,] | F,2 F,>F, [D,F,]2 [B,,B,][B,,D] | %8
 [F,C]2 [F,B,]>[F,B,] [F,A,]3 [F,A,] | B,2 [G,B,]>[G,B,] [D,B,]2 [E,B,]>[E,G,] | %10
 F,2 F,>F, [B,,F,]4- | [B,,F,]4 z4 |] %12
V:4
 x2 | x8 | x8 | x8 | F,2 F,F, F,2 x2 | x8 | x4 B,3 x | F,2 F,>F, x4 | x8 | B,2 x6 | F,2 F,>F, x4 | %11
 x8 |] %12

